static/img/default-profile.svg

<svg xmlns="http://www.w3.org/2000/svg" width="95" height="95" viewBox="0 0 95 95">
  <defs>
    <rect id="avatar-a" width="94.602" height="94.602" rx="47.301"/>
  </defs>
  <g fill="none" fill-rule="evenodd">
    <mask id="avatar-b" fill="#fff">
      <use href="#avatar-a"/>
    </mask>
    <use fill="#E1E1E6" href="#avatar-a"/>
    <path fill="#C8C8CC" d="M55.9126821,26.3277175 L55.9185014,26.3277175 L55.9126821,26.3277175 Z M55.9126821,24 C55.7357756,24 55.5577052,24.0407351 55.3924372,24.1222052 C55.3063117,24.1664318 46.7857017,28.4098608 42.9449678,28.9592022 C40.1098079,29.3630612 32.478386,31.5103806 27.7484639,32.8848978 L25.9049117,31.0413455 C24.3662904,29.5027242 22.3202267,28.6542712 20.1438108,28.6542712 C17.9662311,28.6542712 15.9213312,29.5015604 14.3827099,31.0401816 C11.2065394,34.2163522 11.2053755,39.3862128 14.3815461,42.5612195 L17.2027397,45.383577 C16.5009329,51.6125491 16.3042407,62.2618568 16.6883141,73.500077 C14.7819135,76.0512554 12.0526647,80.6717747 13.0873351,85.1759081 C13.4946857,86.9507927 14.6492336,89.3692912 17.810274,91.0941299 C18.5027699,98.1145259 19.763229,107.048306 21.9105484,111.344108 C22.3493232,113.47397 22.8148667,115.245363 23.2943765,116.611733 C24.1125692,118.942942 27.0245438,126.549923 30.1495046,126.549923 C30.5859516,126.549923 30.9956299,126.404441 31.3343128,126.12977 C31.8720155,125.692159 32.4260123,125.240582 32.2467781,115.990233 C36.9080324,116.610569 42.8402205,116.963219 48.7875388,116.963219 C52.848242,116.963219 58.5627885,116.796787 63.6069524,116.049589 C63.4312097,125.241746 63.9852065,125.693323 64.5205815,126.12977 C64.8592644,126.404441 65.2689427,126.549923 65.7053897,126.549923 C68.8315144,126.549923 71.743489,118.942942 72.5616817,116.611733 C73.2856018,114.550539 73.9676231,111.59783 74.5902875,107.83391 C75.6389243,103.432197 76.7410985,97.2451234 77.6256312,90.7926905 C80.1197805,88.481267 81.7398719,85.6647288 82.0948488,83.0076392 C82.6488456,78.856155 80.7599028,75.996554 79.3318481,74.4788822 C80.1418938,63.133587 80.0511128,53.0499147 79.060669,44.4885696 L80.5992903,42.9487845 C82.1379116,41.4113271 82.9863646,39.3652634 82.9863646,37.1888475 C82.9863646,35.0124316 82.1379116,32.9663679 80.5992903,31.4289105 C79.0618329,29.8902892 77.0157692,29.0418362 74.8393533,29.0418362 C72.6629374,29.0418362 70.6168737,29.8902892 69.0794163,31.4289105 L68.2100138,32.2971491 L59.9861878,30.0904729 L59.9861878,28.3644704 C59.9861878,27.9990187 59.8139367,27.6533527 59.5206443,27.4322195 C59.316969,27.279754 59.0713948,27.2006116 58.822329,27.2006116 C58.7129263,27.2006116 58.6023597,27.2169056 58.4941208,27.2483298 L55.9429424,27.9990187 L56.9787767,25.6305661 C57.1754689,25.1824805 57.0695577,24.6575802 56.7145808,24.3200612 C56.4934476,24.1105666 56.2048107,24 55.9126821,24 L55.9126821,24 Z M53.8759293,29.8192938 L58.822329,28.3644704 L58.822329,30.9831526 L68.5580076,33.5948516 L69.9022644,32.2517586 C71.2639792,30.8877162 73.0528301,30.2056949 74.8393533,30.2056949 C76.6270404,30.2056949 78.4135636,30.8877162 79.7764422,32.2517586 C82.5045271,34.9786797 82.5045271,39.3990153 79.7764422,42.1259364 L77.8386173,44.0637612 C79.019934,53.7936204 78.8849263,64.7129433 78.1330736,74.9211485 C79.8311435,76.5517147 81.4244662,79.2309175 80.9414648,82.8540099 C80.601618,85.4063521 78.9093674,88.1146515 76.5304401,90.2154165 C75.5365047,97.5523821 74.3784652,103.706867 73.4473782,107.60463 C72.9236418,110.783129 72.26257,113.951152 71.462999,116.226496 C69.3971497,122.113294 67.0263694,125.386064 65.7053897,125.386064 C65.5377941,125.386064 65.3876563,125.333691 65.2561403,125.22778 C64.6998158,124.775039 64.6753747,119.773937 64.8022353,114.6774 C60.3772443,115.454858 54.6010133,115.79936 48.7875388,115.79936 C42.3141563,115.79936 35.7965473,115.372224 31.052659,114.643648 C31.1795196,119.751824 31.1562424,124.773875 30.5987541,125.22778 C30.4684019,125.333691 30.3182641,125.386064 30.1495046,125.386064 C28.8285249,125.386064 26.4565807,122.11213 24.3918953,116.226496 C23.8786336,114.761198 23.4200732,112.925793 23.0197058,110.956544 C21.1330907,107.314829 19.7818507,99.5076649 18.9077928,90.3504241 C15.7630464,88.8385716 14.6073347,86.5969796 14.2220974,84.9163676 C13.2351452,80.6159095 16.1925103,76.0396168 17.8661392,73.8748395 C17.4541332,62.2711677 17.6729386,51.0573885 18.4247914,44.9599324 L15.2043942,41.7383714 C12.478637,39.0114503 12.478637,34.5911147 15.2055581,31.8630298 C16.5684367,30.5001512 18.3549599,29.8181299 20.1438108,29.8181299 C21.930334,29.8181299 23.7180211,30.5001512 25.0820635,31.8641937 L27.4121088,34.1954028 C31.8778348,32.8918809 40.1877864,30.5280838 43.1102357,30.1102585 C47.1837414,29.5283291 55.9126821,25.1638588 55.9126821,25.1638588 L53.8759293,29.8192938 Z" mask="url(#avatar-b)"/>
    <path fill="#E9E9ED" d="M55.9217675,26.2749103 L55.9275931,26.2749103 L55.9217675,26.2749103 Z M53.8828173,29.7702535 L58.8345535,28.3138605 L58.8345535,30.9353679 L68.5807355,33.5498846 L69.9264426,32.2053426 C71.2896265,30.8398286 73.0804073,30.1570715 74.8688579,30.1570715 C76.6584737,30.1570715 78.4469243,30.8398286 79.8112732,32.2053426 C82.5423014,34.9352057 82.5423014,39.3603102 79.8112732,42.0901732 L77.8713577,44.0300887 C79.0539489,53.7704451 78.9187956,64.7015484 78.1661317,74.9207668 C79.8660336,76.5530921 81.4610752,79.2351854 80.9775527,82.8621866 C80.6373393,85.4172825 78.943263,88.1285037 76.5617692,90.2315352 C75.5667615,97.5764164 74.4074726,103.737541 73.4753811,107.639509 C72.9510796,110.821437 72.2892946,113.992878 71.4888611,116.270677 C69.420783,122.163826 67.047445,125.440127 65.7250401,125.440127 C65.5572636,125.440127 65.4069639,125.387697 65.2753059,125.281672 C64.7183813,124.828442 64.6939139,119.821946 64.8209113,114.71991 C60.3911464,115.498206 54.6086836,115.84308 48.7889372,115.84308 C42.3085709,115.84308 35.7839302,115.415483 31.0349239,114.686121 C31.1619214,119.799808 31.1386191,124.827277 30.5805293,125.281672 C30.4500365,125.387697 30.2997367,125.440127 30.1307951,125.440127 C28.8083903,125.440127 26.4338871,122.16266 24.3669742,116.270677 C23.8531587,114.803798 23.3941037,112.966412 22.9933043,110.995039 C21.1046539,107.349396 19.7519561,99.5338085 18.8769551,90.3666884 C15.728816,88.8532048 14.5718574,86.6091945 14.1862046,84.9267693 C13.1981875,80.6216716 16.1587432,76.0404418 17.8341777,73.873329 C17.4217273,62.2571384 17.6407688,51.0312611 18.3934327,44.9272268 L15.1695611,41.7021901 C12.4408632,38.9723271 12.4408632,34.5472226 15.1707262,31.8161944 C16.5350752,30.4518455 18.3235258,29.7690884 20.1143066,29.7690884 C21.9027572,29.7690884 23.692373,30.4518455 25.057887,31.8173595 L27.3904461,34.1510837 C31.86099,32.8461556 40.1799069,30.4798082 43.1055091,30.0615321 C47.1834095,29.4789749 55.9217675,25.1097959 55.9217675,25.1097959 L53.8828173,29.7702535 Z" mask="url(#avatar-b)"/>
    <g mask="url(#avatar-b)">
      <g transform="translate(21 36)">
        <path fill="#F0F0F0" d="M5.40036274,7.74463025 C-3.06943534,13.4089633 2.22418846,66.630093 7.63544834,73.2384816 C16.4581547,84.0951201 43.396818,83.2690715 48.5728057,71.1143567 C49.3962583,69.1082388 57.5131481,30.9919973 51.3960718,9.9867621 C49.3962583,3.26036655 25.7514053,-5.70816085 5.40036274,7.74463025 Z"/>
        <path fill="#C8C8CC" fill-rule="nonzero" d="M21.5997717,28.2334763 C21.5196337,27.7121631 21.9374053,27.2052391 22.5304886,27.2416008 C22.6256622,27.2635733 28.012992,28.3981387 28.7683973,26.8629774 C29.3404617,25.6877381 29.1748714,24.8227112 29.1748714,24.8227112 C29.189907,24.3233705 29.5856368,23.9119201 30.0104147,23.8088631 C30.5303662,23.7277786 30.9401087,24.1240622 31.0422885,24.5499018 C31.2466483,25.4015809 31.6263196,26.7965458 32.036062,27.1928294 C32.8555468,27.9853966 34.9559355,27.0659474 36.8554245,26.6031543 C36.8554245,26.6031543 37.8834264,26.4713844 37.9604301,27.4616391 C38.0741424,27.9920494 37.5185497,28.4637672 37.102845,28.5709608 C35.0741656,29.3695539 31.843669,29.7630336 30.6144417,28.5741828 C30.54131,28.4567366 30.2998729,28.1998717 30.2998729,28.1998717 C28.5068117,30.704406 22.9702619,29.1652722 22.7799147,29.1213271 C22.5895676,29.077382 21.8006102,28.9977989 21.5997717,28.2334763 Z"/>
        <path fill="#C8C8CC" d="M24.4373659,22.3270379 C23.7898244,23.0181639 28.6889322,24.1804178 29.3146814,24.0455133 C30.2475977,23.8462698 34.2511472,20.8555415 33.7198312,19.4099882 C33.4354941,18.6348064 26.9943245,19.5936658 24.4373659,22.3270379"/>
        <path fill="#C8C8CC" d="M24.5455891 22.4329633L24.5559663 22.4329633 24.5455891 22.4329633zM26.1592541 22.4059824C27.2115089 22.7681491 28.8428153 23.1489948 29.292151 23.125127 29.9251642 22.9248458 31.9591086 21.2893885 32.6253291 20.2921332 31.2109076 20.3543968 28.1257461 21.0123155 26.1592541 22.4059824L26.1592541 22.4059824zM29.3886595 25.1860523C28.1786702 25.1860523 24.2778556 24.3558709 23.6147482 23.182202 23.3418261 22.6996591 23.4103161 22.1278717 23.7880486 21.7231583 26.2152913 19.1288416 31.7951477 17.908475 33.6568294 18.2893207 34.3956908 18.439791 34.687292 18.8445044 34.8024797 19.1589356 35.0162514 19.7400626 34.9259692 20.3948681 34.5357839 21.1046732 33.6007922 22.7992809 30.7200629 24.9349224 29.6408271 25.1663355 29.5796012 25.1787882 29.4945077 25.1860523 29.3886595 25.1860523L29.3886595 25.1860523zM15.4294485 19.1505368C17.9812185 19.1505368 19.2731882 21.097312 19.32715 21.1803302 19.638468 21.6607976 19.5014881 22.3041882 19.0199829 22.6155062 18.5384777 22.9288997 17.8961249 22.790882 17.5848069 22.3093768 17.5785805 22.2979618 16.84387 21.2259902 15.4294485 21.2259902 14.0357816 21.2259902 13.3072975 22.2616414 13.2678638 22.3176786 12.9544704 22.7919197 12.3162685 22.9257865 11.8389142 22.6155062 11.357409 22.3041882 11.2204291 21.6607976 11.5317471 21.1803302 11.5857089 21.097312 12.8776786 19.1505368 15.4294485 19.1505368zM43.315676 19.1505368C45.8674459 19.1505368 47.1594157 21.097312 47.2133775 21.1803302 47.5246955 21.6607976 47.3877155 22.3041882 46.9062104 22.6155062 46.4257429 22.9288997 45.7823523 22.790882 45.4710343 22.3093768 45.464808 22.2979618 44.7300975 21.2259902 43.315676 21.2259902 41.922009 21.2259902 41.1935249 22.2616414 41.1540913 22.3176786 40.8417356 22.7919197 40.2024959 22.9257865 39.7251416 22.6155062 39.2436365 22.3041882 39.1066565 21.6607976 39.4179745 21.1803302 39.4719363 21.097312 40.7639061 19.1505368 43.315676 19.1505368zM15.1231569 12.108778C15.7939223 12.108778 16.3388489 12.7251799 16.3388489 13.4839261L16.3388489 16.5646647C16.3388489 17.3234109 15.7939223 17.9398128 15.1231569 17.9398128 14.4523916 17.9398128 13.907465 17.3234109 13.907465 16.5646647L13.907465 13.4839261C13.9040943 12.7251799 14.4478974 12.108778 15.1231569 12.108778M44.5316101 13.4839261L44.5316101 16.5646647C44.5316101 17.3234109 43.9866835 17.9398128 43.3159182 17.9398128 42.6451528 17.9398128 42.1002262 17.3234109 42.1002262 16.5646647L42.1002262 13.4839261C42.1002262 12.7251799 42.6406586 12.108778 43.3159182 12.108778 43.9866835 12.108778 44.5316101 12.7251799 44.5316101 13.4839261z"/>
      </g>
    </g>
  </g>
</svg>

<svg xmlns="http://www.w3.org/2000/svg" width="95" height="95"><defs><rect id="a" width="94.602" height="94.602" rx="47.301"/></defs><g fill="none" fill-rule="evenodd"><mask id="b" fill="#fff"><use href="#a"/></mask><use fill="#E1E1E6" href="#a"/><path fill="#C8C8CC" d="M55.913 26.328h.006-.006zm0-2.328c-.177 0-.355.04-.52.122-.087.044-8.607 4.288-12.448 4.837-2.835.404-10.467 2.551-15.197 3.926l-1.843-1.844a8.095 8.095 0 0 0-5.761-2.387 8.092 8.092 0 0 0-5.761 2.386c-3.176 3.176-3.178 8.346-.001 11.521l2.82 2.823c-.701 6.229-.898 16.878-.514 28.116-1.906 2.551-4.635 7.172-3.6 11.676.407 1.775 1.561 4.193 4.722 5.918.693 7.02 1.953 15.954 4.1 20.25.44 2.13.905 3.901 1.384 5.268.819 2.33 3.73 9.938 6.856 9.938.436 0 .846-.146 1.184-.42.538-.438 1.092-.89.913-10.14 4.661.62 10.593.973 16.54.973 4.061 0 9.776-.166 14.82-.913-.176 9.192.378 9.643.914 10.08.338.274.748.42 1.184.42 3.127 0 6.038-7.607 6.857-9.938.724-2.061 1.406-5.014 2.028-8.778 1.049-4.402 2.151-10.589 3.036-17.041 2.494-2.312 4.114-5.128 4.469-7.785.554-4.152-1.335-7.011-2.763-8.53.81-11.344.72-21.428-.271-29.99l1.538-1.54a8.09 8.09 0 0 0 2.387-5.76 8.09 8.09 0 0 0-2.387-5.76 8.09 8.09 0 0 0-5.76-2.386 8.09 8.09 0 0 0-5.76 2.387l-.869.868-8.224-2.207v-1.726c0-.365-.172-.71-.465-.932a1.165 1.165 0 0 0-1.027-.184L55.943 28l1.036-2.368A1.164 1.164 0 0 0 55.913 24zm-2.037 5.82l4.946-1.456v2.62l9.736 2.61 1.344-1.342a6.956 6.956 0 0 1 4.937-2.046c1.788 0 3.575.682 4.937 2.046a6.98 6.98 0 0 1 0 9.874l-1.937 1.938c1.18 9.73 1.046 20.649.294 30.857 1.698 1.63 3.291 4.31 2.808 7.933-.34 2.552-2.032 5.26-4.41 7.361-.994 7.337-2.153 13.492-3.084 17.39-.523 3.178-1.184 6.346-1.984 8.621-2.066 5.887-4.437 9.16-5.758 9.16a.697.697 0 0 1-.449-.158c-.556-.453-.58-5.454-.454-10.55-4.425.777-10.201 1.121-16.014 1.121-6.474 0-12.991-.427-17.735-1.155.127 5.108.103 10.13-.454 10.584a.692.692 0 0 1-.45.158c-1.32 0-3.692-3.274-5.757-9.16-.513-1.465-.972-3.3-1.372-5.27-1.887-3.641-3.238-11.448-4.112-20.606-3.145-1.511-4.3-3.753-4.686-5.434-.987-4.3 1.97-8.876 3.644-11.041-.412-11.604-.193-22.818.559-28.915l-3.22-3.222a6.984 6.984 0 0 1 9.877-9.874l2.33 2.331c4.466-1.303 12.776-3.667 15.698-4.085 4.074-.582 12.803-4.946 12.803-4.946l-2.037 4.655z" mask="url(#b)"/><path fill="#E9E9ED" d="M55.922 26.275h.006-.006zm-2.04 3.495l4.953-1.456v2.621l9.746 2.615 1.345-1.345a6.964 6.964 0 0 1 4.943-2.048c1.79 0 3.578.683 4.942 2.048a6.987 6.987 0 0 1 0 9.885l-1.94 1.94c1.183 9.74 1.048 20.672.295 30.89 1.7 1.633 3.295 4.315 2.812 7.942-.34 2.555-2.035 5.267-4.416 7.37-.995 7.344-2.155 13.506-3.087 17.408-.524 3.181-1.186 6.353-1.986 8.63-2.068 5.894-4.442 9.17-5.764 9.17a.698.698 0 0 1-.45-.158c-.557-.454-.581-5.46-.454-10.562-4.43.778-10.212 1.123-16.032 1.123-6.48 0-13.005-.428-17.754-1.157.127 5.114.104 10.141-.454 10.596a.693.693 0 0 1-.45.158c-1.323 0-3.697-3.277-5.764-9.17-.514-1.466-.973-3.304-1.374-5.275-1.888-3.646-3.241-11.461-4.116-20.628-3.148-1.514-4.305-3.758-4.69-5.44-.989-4.305 1.972-8.887 3.647-11.054-.412-11.616-.193-22.842.56-28.946l-3.224-3.225a6.992 6.992 0 0 1 9.888-9.885l2.332 2.334c4.471-1.305 12.79-3.671 15.716-4.09 4.077-.582 12.816-4.951 12.816-4.951l-2.04 4.66z" mask="url(#b)"/><g mask="url(#b)"><path fill="#F0F0F0" d="M26.4 43.745c-8.47 5.664-3.176 58.885 2.235 65.493 8.823 10.857 35.762 10.031 40.938-2.124.823-2.006 8.94-40.122 2.823-61.127-2-6.727-25.645-15.695-45.996-2.242z"/><path fill="#C8C8CC" fill-rule="nonzero" d="M42.6 64.233a.87.87 0 0 1 .93-.991c.096.022 5.483 1.156 6.238-.379.572-1.175.407-2.04.407-2.04.015-.5.41-.911.835-1.014.52-.081.93.315 1.032.74.205.853.584 2.248.994 2.644.82.792 2.92-.127 4.82-.59 0 0 1.027-.132 1.104.859.114.53-.441 1.002-.857 1.109-2.029.799-5.26 1.192-6.489.003-.073-.117-.314-.374-.314-.374-1.793 2.504-7.33.965-7.52.921-.19-.044-.98-.123-1.18-.888z"/><path fill="#C8C8CC" d="M45.437 58.327c-.647.691 4.252 1.853 4.878 1.719.933-.2 4.936-3.19 4.405-4.636-.285-.775-6.726.184-9.283 2.917"/><path fill="#C8C8CC" d="M45.546 58.433h.01-.01zm1.613-.027c1.053.362 2.684.743 3.133.72.633-.201 2.667-1.837 3.333-2.834-1.414.062-4.5.72-6.466 2.114zm3.23 2.78c-1.21 0-5.111-.83-5.774-2.004a1.221 1.221 0 0 1 .173-1.459c2.427-2.594 8.007-3.815 9.869-3.434.739.15 1.03.556 1.145.87.214.581.124 1.236-.266 1.946-.935 1.694-3.816 3.83-4.895 4.061-.061.013-.146.02-.252.02zm-13.96-6.035c2.552 0 3.844 1.946 3.898 2.03a1.038 1.038 0 0 1-1.742 1.128c-.006-.011-.741-1.083-2.156-1.083-1.393 0-2.122 1.036-2.161 1.092a1.038 1.038 0 1 1-1.736-1.137c.054-.084 1.346-2.03 3.897-2.03zm27.887 0c2.551 0 3.843 1.946 3.897 2.03a1.038 1.038 0 0 1-1.742 1.128c-.006-.011-.74-1.083-2.155-1.083-1.394 0-2.122 1.036-2.162 1.092a1.038 1.038 0 1 1-1.736-1.137c.054-.084 1.346-2.03 3.898-2.03zm-28.193-7.042c.67 0 1.216.616 1.216 1.375v3.08c0 .76-.545 1.376-1.216 1.376-.67 0-1.216-.617-1.216-1.375v-3.081c-.003-.759.54-1.375 1.216-1.375m29.409 1.375v3.08c0 .76-.545 1.376-1.216 1.376-.67 0-1.216-.617-1.216-1.375v-3.081c0-.759.54-1.375 1.216-1.375.67 0 1.216.616 1.216 1.375z"/></g></g></svg>
